X:65
T:Droneless
M:6/8
L:1/8
C:Lawrence Morgan-Anstee (Eel Grinders)
R:Jig
N:original in Dm
K:Gm % transposed from Dm
g3gfd | f3f2g | f3f2g | edcc3 |\
g3gfd |1 a3a2b | a3agf | g2dd2d :|2 a2df2g | a2df2g | g6 ||
|:\
dga bag | eba bag | cag agf | dag a3 |\
dga bag | dfd bdf | cfg agf |1 g6 :|2 g2dd2d |] 
